packages/foundations/assets/icons/functional/images/maps/map_24.svg

<svg width="24" height="24" viewBox="0 0 24 24" fill="none" xmlns="http://www.w3.org/2000/svg">
<g clip-path="url(#clip0_186_72)">
<path fill-rule="evenodd" clip-rule="evenodd" d="M9 2.5C9.1875 2.5 9.4062 2.5938 9.5312 2.6562L15 5.4062L20.1875 2.8125C20.5252 2.6436 20.875 2.5312 21.1562 2.5312C21.6562 2.5312 22 2.9688 22 3.4062V17.4688C22 17.8438 21.875 18.1875 21.4688 18.375L15.5 21.375C15.375 21.4375 15.25 21.5 15.0312 21.5C14.7812 21.5 14.6562 21.4375 14.5625 21.375L9.0312 18.5938L3.75 21.25C3.5 21.3438 3.1562 21.5 2.875 21.5C2.4375 21.5 2 21.1875 2 20.5938V6.5312C2 6.1875 2.15 5.832 2.4375 5.6875L8.4688 2.6562C8.557 2.6119 8.7812 2.5 9 2.5ZM8.0312 5.125L4 7.1562V18.875L8.0312 16.8438V5.125ZM10.0312 5.125V16.8438L14 18.875V7.1562L10.0312 5.125ZM20 5.125L16 7.1562V18.875L20 16.8438V5.125Z" fill="#1A1C1F"/>
</g>
<defs>
<clipPath id="clip0_186_72">
<rect width="24" height="24" fill="white"/>
</clipPath>
</defs>
</svg>

<svg xmlns="http://www.w3.org/2000/svg" width="24" height="24" fill="none"><g clip-path="url(#a)"><path fill="#1A1C1F" fill-rule="evenodd" d="M9 2.5c.188 0 .406.094.531.156L15 5.406l5.188-2.593c.337-.17.687-.282.968-.282.5 0 .844.438.844.875V17.47c0 .375-.125.718-.531.906l-5.969 3c-.125.063-.25.125-.469.125-.25 0-.375-.062-.469-.125l-5.53-2.781L3.75 21.25c-.25.094-.594.25-.875.25-.437 0-.875-.312-.875-.906V6.53c0-.343.15-.699.438-.843l6.03-3.032c.089-.044.313-.156.532-.156m-.969 2.625L4 7.156v11.719l4.031-2.031zm2 0v11.719L14 18.875V7.156zm9.969 0-4 2.031v11.719l4-2.031z" clip-rule="evenodd"/></g><defs><clipPath id="a"><path fill="#fff" d="M0 0h24v24H0z"/></clipPath></defs></svg>
